svgs/azahar_emulator.svg

<svg width="192" height="192" viewBox="0 0 192 192" fill="none" xmlns="http://www.w3.org/2000/svg">
<path d="M108.594 77.8491C108.594 77.8491 110.463 68.5409 110.463 58.3019C110.463 33.6352 95.5118 22 85.6998 22C75.8878 22 81.9619 36.8931 81.9619 45.7358C81.9619 54.5786 74.9534 69.9371 74.9534 69.9371" stroke="black" stroke-width="12" stroke-linecap="round" stroke-linejoin="round"/>
<path d="M80.5599 83.434C67.4773 54.5785 41.7792 44.8051 31.5 54.5786C37.5741 62.4906 37.5741 71.3334 37.5741 87.6227C37.5741 98.7926 54.8619 106.705 62.8049 107.635" stroke="black" stroke-width="12" stroke-linecap="round" stroke-linejoin="round"/>
<path d="M75 103C59.2073 107.84 34.5457 124.727 50.2993 152.486C50.9317 153.6 52.467 153.767 53.392 152.88C65.637 141.144 61.4768 150.667 83.3633 135.094" stroke="black" stroke-width="12" stroke-linecap="round" stroke-linejoin="round"/>
<path d="M88.5921 119C81.2146 153.255 100.564 156.737 124.208 169.742C125.38 170.386 126.854 169.775 127.108 168.467C129.345 156.962 130 135.5 110.935 120.516" stroke="black" stroke-width="12" stroke-linecap="round" stroke-linejoin="round"/>
<path d="M122 133C124.959 136.103 134.105 142.075 140.833 142.075C146.908 142.075 145.039 138.818 149.244 138.818C154.851 138.818 155.668 141.145 158.588 138.818C162.326 135.839 152.047 106.239 121.209 102.05" stroke="black" stroke-width="12" stroke-linecap="round" stroke-linejoin="round"/>
<path d="M111.5 68.0099C142.431 38.1518 158.834 46.0828 160.24 49.815C161.646 53.5473 156.959 57.2797 155.553 61.945C154.147 66.6103 150.867 96.9351 128.372 103" stroke="black" stroke-width="12" stroke-linecap="round" stroke-linejoin="round"/>
</svg>

<svg width="192" height="192" fill="none" xmlns="http://www.w3.org/2000/svg"><path d="M108.594 77.85s1.869-9.31 1.869-19.548C110.463 33.635 95.512 22 85.7 22c-9.812 0-3.738 14.893-3.738 23.736s-7.009 24.201-7.009 24.201m5.607 13.497C67.477 54.579 41.78 44.805 31.5 54.579c6.074 7.912 6.074 16.754 6.074 33.044 0 11.17 17.288 19.082 25.23 20.012M75 103c-15.793 4.84-40.454 21.727-24.7 49.486.632 1.114 2.167 1.281 3.092.394 12.245-11.736 9.221-3.307 31.108-18.88m4.092-15c-7.377 34.255 11.972 37.737 35.616 50.742 1.172.644 2.646.033 2.9-1.275 2.237-11.505 2.892-32.967-16.173-47.951" stroke="#000" stroke-width="12" stroke-linecap="round" stroke-linejoin="round"/><path d="M122 133c2.959 3.103 12.105 9.075 18.833 9.075 6.075 0 4.206-3.257 8.411-3.257 5.607 0 6.424 2.327 9.344 0 3.738-2.979-6.541-32.579-37.379-36.768M111.5 68.01c30.931-29.858 47.334-21.927 48.74-18.195 1.406 3.732-3.281 7.465-4.687 12.13-1.406 4.665-4.686 34.99-27.181 41.055" stroke="#000" stroke-width="12" stroke-linecap="round" stroke-linejoin="round"/></svg>
